X:72
M:2/4
L:1/8
Q:1/4=130
K:D
d2e2|(f/g/)f/g/ ag|f2{a/}gf/e/|d3:|
|:!wedge!f(f/g/) fe|!wedge!d(d/e/) dA|B2c2|d/c/d/e/ dd|\
!wedge!f(f/g/) fe|!wedge!d(d/e/) dA|B2Tc2|d3:|

